X:2646
T:Card Mill,The. JB.30
M:6/8
L:1/8
Q:120
S:James Biggins MS, Leeds, 1779.
R:Jig
O:England
A:Yorkshire
Z:vmp.Nick Barber & Chris Partington
K:F
f2FG2A|Bcd efg|fga gab|agfgec|!
f2FG2A|Bcd efg|fga bag|f3F3:|!
|:f2g afd|e2f gec|d2efed|cdB A2B|!
cde fga|def gab|agf cfe|f3F3:|]


